src/svg/twitter.svg

<!--?xml version="1.0" encoding="utf-8"?-->
<!-- Generator: Adobe Illustrator 18.0.0, SVG Export Plug-In . SVG Version: 6.00 Build 0)  -->

<svg version="1.1" id="_x32_" xmlns="http://www.w3.org/2000/svg" xmlns:xlink="http://www.w3.org/1999/xlink" x="0px" y="0px" viewBox="0 0 512 512" style="width: 256px; height: 256px; opacity: 1;" xml:space="preserve">
<style type="text/css">
	.st0{fill:#4B4B4B;}
</style>
<g>
	<path class="st0" d="M256,0C114.615,0,0,114.615,0,256s114.615,256,256,256s256-114.615,256-256S397.385,0,256,0z M260.926,217.391
		c0.084,0.004,0.164,0.021,0.25,0.025c-0.875-3.752-1.328-7.664-1.328-11.682c0-28.307,22.951-51.258,51.262-51.258
		c14.742,0,28.063,6.225,37.414,16.188c9.6-1.89,18.684-5.174,27.129-9.523c1.781-0.864,3.566-1.723,5.32-2.674
		c-3.039,9.334-8.744,17.412-16.141,23.532c-2.004,1.576-4.062,3.098-6.326,4.344c0.154-0.018,0.304-0.052,0.457-0.071
		c-0.15,0.093-0.275,0.22-0.428,0.312c8.402-1.005,16.459-3.051,24.111-5.942c1.715-0.592,3.428-1.191,5.127-1.852
		c-6.842,10.159-15.453,19.095-25.375,26.259c0.098,2.197,0.148,4.406,0.148,6.631c0,67.736-51.558,145.842-145.844,145.842
		c-28.947,0-55.891-8.484-78.576-23.028c4.01,0.473,8.092,0.715,12.229,0.715c19.136,0,37.014-5.269,52.383-14.34
		c3.871-2.23,7.658-4.639,11.273-7.365c-0.098-0.002-0.187-0.026-0.285-0.028c0.094-0.073,0.196-0.136,0.289-0.209
		c-19.422-0.358-36.184-11.539-44.574-27.747c-1.25-2.489-2.32-5.096-3.164-7.831c3.086,0.58,6.246,0.898,9.5,0.898
		c3.391,0,6.666-0.436,9.871-1.063c1.197-0.168,2.406-0.308,3.586-0.502c-0.156-0.032-0.293-0.1-0.449-0.133
		c0.162-0.042,0.336-0.056,0.496-0.1c-23.449-4.709-41.119-25.428-41.119-50.262c0-0.196,0.002-0.387,0.004-0.58l0.024-0.055
		c5.521,3.064,11.693,5.092,18.23,5.94c1.609,0.269,3.221,0.516,4.832,0.657c-0.11-0.074-0.205-0.164-0.314-0.238
		c0.152,0.006,0.297,0.036,0.447,0.041c-13.754-9.191-22.803-24.883-22.803-42.666c0-8.142,1.988-15.787,5.367-22.623
		c0.539-1.028,1.018-2.078,1.637-3.074c22.711,27.822,55.516,46.971,92.801,52.15c4.16,0.605,8.332,1.144,12.553,1.388
		C260.934,217.443,260.932,217.416,260.926,217.391z" style="fill: rgb(75, 75, 75);"></path>
</g>
</svg>

<?xml version="1.0" encoding="UTF-8" standalone="no"?>
<!DOCTYPE svg PUBLIC "-//W3C//DTD SVG 1.1//EN" "http://www.w3.org/Graphics/SVG/1.1/DTD/svg11.dtd">
<svg width="100%" height="100%" viewBox="0 0 512 512" version="1.1" xmlns="http://www.w3.org/2000/svg" xmlns:xlink="http://www.w3.org/1999/xlink" xml:space="preserve" xmlns:serif="http://www.serif.com/" style="fill-rule:evenodd;clip-rule:evenodd;stroke-linejoin:round;stroke-miterlimit:1.41421;">
    <path d="M256,0C114.615,0 0,114.615 0,256C0,397.385 114.615,512 256,512C397.385,512 512,397.385 512,256C512,114.615 397.385,0 256,0ZM260.926,217.391C261.01,217.395 261.09,217.412 261.176,217.416C260.301,213.664 259.848,209.752 259.848,205.734C259.848,177.427 282.799,154.476 311.11,154.476C325.852,154.476 339.173,160.701 348.524,170.664C358.124,168.774 367.208,165.49 375.653,161.141C377.434,160.277 379.219,159.418 380.973,158.467C377.934,167.801 372.229,175.879 364.832,181.999C362.828,183.575 360.77,185.097 358.506,186.343C358.66,186.325 358.81,186.291 358.963,186.272C358.813,186.365 358.688,186.492 358.535,186.584C366.937,185.579 374.994,183.533 382.646,180.642C384.361,180.05 386.074,179.451 387.773,178.79C380.931,188.949 372.32,197.885 362.398,205.049C362.496,207.246 362.546,209.455 362.546,211.68C362.546,279.416 310.988,357.522 216.702,357.522C187.755,357.522 160.811,349.038 138.126,334.494C142.136,334.967 146.218,335.209 150.355,335.209C169.491,335.209 187.369,329.94 202.738,320.869C206.609,318.639 210.396,316.23 214.011,313.504C213.913,313.502 213.824,313.478 213.726,313.476C213.82,313.403 213.922,313.34 214.015,313.267C194.593,312.909 177.831,301.728 169.441,285.52C168.191,283.031 167.121,280.424 166.277,277.689C169.363,278.269 172.523,278.587 175.777,278.587C179.168,278.587 182.443,278.151 185.648,277.524C186.845,277.356 188.054,277.216 189.234,277.022C189.078,276.99 188.941,276.922 188.785,276.889C188.947,276.847 189.121,276.833 189.281,276.789C165.832,272.08 148.162,251.361 148.162,226.527C148.162,226.331 148.164,226.14 148.166,225.947L148.19,225.892C153.711,228.956 159.883,230.984 166.42,231.832C168.029,232.101 169.641,232.348 171.252,232.489C171.142,232.415 171.047,232.325 170.938,232.251C171.09,232.257 171.235,232.287 171.385,232.292C157.631,223.101 148.582,207.409 148.582,189.626C148.582,181.484 150.57,173.839 153.949,167.003C154.488,165.975 154.967,164.925 155.586,163.929C178.297,191.751 211.102,210.9 248.387,216.079C252.547,216.684 256.719,217.223 260.94,217.467C260.934,217.443 260.932,217.416 260.926,217.391Z" style="fill:rgb(201,202,204);fill-rule:nonzero;"/>
</svg>
